fa/svgs/regular/window-maximize.svg

<svg xmlns="http://www.w3.org/2000/svg" viewBox="0 0 512 512"><!--! Font Awesome Free 6.1.1 by @fontawesome - https://fontawesome.com License - https://fontawesome.com/license/free (Icons: CC BY 4.0, Fonts: SIL OFL 1.1, Code: MIT License) Copyright 2022 Fonticons, Inc.--><path d="M7.724 65.49A64.308 64.308 0 0 1 32 40.56a63.55 63.55 0 0 1 25.46-8.23c2.15-.22 4.33-.33 6.54-.33h384c35.3 0 64 28.65 64 64v320c0 35.3-28.7 64-64 64H64c-35.35 0-64-28.7-64-64V96c0-2.21.112-4.39.33-6.54a63.634 63.634 0 0 1 7.394-23.97zM48 416c0 8.8 7.16 16 16 16h384c8.8 0 16-7.2 16-16V224H48v192z"/></svg>

<svg xmlns="http://www.w3.org/2000/svg" viewBox="0 0 512 512"><!--! Font Awesome Free 6.2.1 by @fontawesome - https://fontawesome.com License - https://fontawesome.com/license/free (Icons: CC BY 4.0, Fonts: SIL OFL 1.1, Code: MIT License) Copyright 2022 Fonticons, Inc. --><path d="M7.724 65.49C13.36 55.11 21.79 46.47 32 40.56C39.63 36.15 48.25 33.26 57.46 32.33C59.61 32.11 61.79 32 64 32H448C483.3 32 512 60.65 512 96V416C512 451.3 483.3 480 448 480H64C28.65 480 0 451.3 0 416V96C0 93.79 .112 91.61 .3306 89.46C1.204 80.85 3.784 72.75 7.724 65.49V65.49zM48 416C48 424.8 55.16 432 64 432H448C456.8 432 464 424.8 464 416V224H48V416z"/></svg>
